packages/tokens/icons/inconsistentOmnichannelExperiences/size32Px.svg

<svg viewBox="0 0 32 32" fill="none" xmlns="http://www.w3.org/2000/svg" width="1em" height="1em"><circle cx="16" cy="16" r="4.5" stroke="currentColor"/><path fill-rule="evenodd" clip-rule="evenodd" d="M7 7.5C7 8.88071 5.88071 10 4.5 10C3.11929 10 2 8.88071 2 7.5C2 6.11929 3.11929 5 4.5 5C5.88071 5 7 6.11929 7 7.5ZM7.19586 9.73226C6.55387 10.5067 5.58454 11 4.5 11C2.567 11 1 9.433 1 7.5C1 5.567 2.567 4 4.5 4C6.433 4 8 5.567 8 7.5C8 7.98917 7.89965 8.45491 7.7184 8.87774L13.2838 12.5877L12.7163 13.4122L7.19586 9.73226Z" fill="currentColor"/><path fill-rule="evenodd" clip-rule="evenodd" d="M9.3457 22.8068L13.3412 19.3704L12.6588 18.6294L8.69193 22.0413C7.9813 21.3943 7.03671 20.9999 6 20.9999C3.79086 20.9999 2 22.7908 2 24.9999C2 27.2091 3.79086 28.9999 6 28.9999C8.20914 28.9999 10 27.2091 10 24.9999C10 24.1902 9.75937 23.4366 9.3457 22.8068ZM9 24.9999C9 26.6568 7.65685 27.9999 6 27.9999C4.34315 27.9999 3 26.6568 3 24.9999C3 23.3431 4.34315 21.9999 6 21.9999C7.65685 21.9999 9 23.3431 9 24.9999Z" fill="currentColor"/><path fill-rule="evenodd" clip-rule="evenodd" d="M22.8409 22.1292L19.8409 19.1292L19.159 19.8709L22.0276 22.7396C21.3978 23.2895 21 24.0983 21 25C21 26.6569 22.3432 28 24 28C25.6569 28 27 26.6569 27 25C27 23.3432 25.6569 22 24 22C23.5256 22 23.077 22.1101 22.6782 22.3062L22.8409 22.1292ZM26 25C26 26.1046 25.1046 27 24 27C22.8954 27 22 26.1046 22 25C22 23.8955 22.8954 23 24 23C25.1046 23 26 23.8955 26 25Z" fill="currentColor"/><path fill-rule="evenodd" clip-rule="evenodd" d="M24.228 12.1491L20.2799 14.0502L20.7203 14.9495L24.7655 13.0016C25.3147 13.6143 26.1124 13.9999 27.0001 13.9999C28.6569 13.9999 30.0001 12.6567 30.0001 10.9999C30.0001 9.34302 28.6569 7.99988 27.0001 7.99988C25.3432 7.99988 24.0001 9.34302 24.0001 10.9999C24.0001 11.407 24.0811 11.7951 24.228 12.1491ZM27.0001 8.99988C28.1046 8.99988 29.0001 9.89531 29.0001 10.9999C29.0001 12.1044 28.1046 12.9999 27.0001 12.9999C25.8955 12.9999 25.0001 12.1044 25.0001 10.9999C25.0001 9.89531 25.8955 8.99988 27.0001 8.99988Z" fill="currentColor"/><path fill-rule="evenodd" clip-rule="evenodd" d="M15.5 11.5L15.5 6.5L16.5 6.5L16.5 11.5H15.5Z" fill="currentColor"/><circle cx="27" cy="20" r="0.5" stroke="currentColor"/><circle cx="4.5" cy="17.5" r="1" stroke="currentColor"/><circle cx="20.5" cy="7.5" r="1" stroke="currentColor"/><circle cx="14.5" cy="27.5" r="2" stroke="currentColor"/><path d="M18 4.5C18 5.60457 17.1046 6.5 16 6.5C14.8954 6.5 14 5.60457 14 4.5C14 3.39543 14.8954 2.5 16 2.5C17.1046 2.5 18 3.39543 18 4.5Z" stroke="currentColor"/></svg>

<svg xmlns="http://www.w3.org/2000/svg" fill="none" viewBox="0 0 32 32" width="1em" height="1em"><circle cx="16" cy="16" r="4.5" stroke="currentColor"/><path fill="currentColor" fill-rule="evenodd" d="M7 7.5a2.5 2.5 0 1 1-5 0 2.5 2.5 0 0 1 5 0Zm.196 2.232a3.5 3.5 0 1 1 .523-.855l5.565 3.71-.568.825-5.52-3.68Zm2.15 13.075 3.995-3.437-.682-.74-3.967 3.411a4 4 0 1 0 .654.765ZM9 25a3 3 0 1 1-6 0 3 3 0 0 1 6 0Zm13.84-2.87-3-3-.681.74 2.869 2.87a3 3 0 1 0 .65-.433l.163-.178ZM26 25a2 2 0 1 1-4 0 2 2 0 0 1 4 0Zm-1.772-12.85-3.948 1.9.44.9 4.046-1.948a3 3 0 1 0-.537-.852ZM27 9a2 2 0 1 1 0 4 2 2 0 0 1 0-4Zm-11.5 2.5v-5h1v5h-1Z" clip-rule="evenodd"/><circle cx="27" cy="20" r=".5" stroke="currentColor"/><circle cx="4.5" cy="17.5" r="1" stroke="currentColor"/><circle cx="20.5" cy="7.5" r="1" stroke="currentColor"/><circle cx="14.5" cy="27.5" r="2" stroke="currentColor"/><path stroke="currentColor" d="M18 4.5a2 2 0 1 1-4 0 2 2 0 0 1 4 0Z"/></svg>
